src/icons/address-book.svg

<?xml version="1.0" encoding="UTF-8"?>
<svg width="512px" height="512px" viewBox="0 0 512 512" version="1.1" xmlns="http://www.w3.org/2000/svg" xmlns:xlink="http://www.w3.org/1999/xlink">
    <!-- Generator: Sketch 62 (91390) - https://sketch.com -->
    <title>address-book</title>
    <desc>Created with Sketch.</desc>
    <g id="address-book" stroke="none" stroke-width="1" fill="none" fill-rule="evenodd">
        <path d="M316.3,315.35 L316.3,273.95 C316.3,270.25 314.4,267.05 310.6,264.55 L258.8,240.15 C272,231.95 278.6,218.85 278.6,200.55 C278.6,188.05 274.9,177.35 267.3,168.55 C259.7,159.75 250.6,155.35 240,155.35 C229.3,155.35 220.2,159.75 212.7,168.55 C205.1,177.35 201.4,188.05 201.4,200.55 C201.4,218.15 208.3,231.35 222.1,240.15 L169.3,264.45 C166.2,266.35 164.6,269.45 164.6,273.85 L164.6,315.25 C164.6,322.15 167.4,325.65 173.1,325.65 L306.8,325.65 C313.1,325.65 316.3,322.25 316.3,315.35 Z M406.6,159.95 L384,159.95 L384,188.25 L406.6,188.25 C412.9,188.25 416,191.35 416,197.65 L416,225.95 C416,232.25 412.9,235.35 406.6,235.35 L384,235.35 L384,262.65 L406.6,262.65 C412.9,262.65 416,266.05 416,273.05 L416,301.35 C416,307.65 412.9,310.75 406.6,310.75 L384,310.75 L384,337.95 L406.6,337.95 C412.9,337.95 416,341.35 416,348.35 L416,376.65 C416,382.95 412.9,386.05 406.6,386.05 L384,386.05 L384,394.55 C384,404.55 379,409.55 369,409.55 L111,409.55 C101,409.55 96,404.55 96,394.55 L96,104.45 C96,94.45 101,89.45 111,89.45 L368.9,89.45 C378.9,89.45 383.9,94.45 383.9,104.45 L383.9,112.95 L406.5,112.95 C412.8,112.95 415.9,116.05 415.9,122.35 L415.9,150.65 C416,156.85 412.9,159.95 406.6,159.95 L406.6,159.95 Z" id="Shape" fill="#000000" fill-rule="nonzero"></path>
    </g>
</svg>

<svg xmlns="http://www.w3.org/2000/svg" width="512" height="512" viewBox="0 0 512 512">
    <path d="M316.3 315.35v-41.4c0-3.7-1.9-6.9-5.7-9.4l-51.8-24.4c13.2-8.2 19.8-21.3 19.8-39.6 0-12.5-3.7-23.2-11.3-32-7.6-8.8-16.7-13.2-27.3-13.2-10.7 0-19.8 4.4-27.3 13.2-7.6 8.8-11.3 19.5-11.3 32 0 17.6 6.9 30.8 20.7 39.6l-52.8 24.3c-3.1 1.9-4.7 5-4.7 9.4v41.4c0 6.9 2.8 10.4 8.5 10.4h133.7c6.3 0 9.5-3.4 9.5-10.3zm90.3-155.4H384v28.3h22.6c6.3 0 9.4 3.1 9.4 9.4v28.3c0 6.3-3.1 9.4-9.4 9.4H384v27.3h22.6c6.3 0 9.4 3.4 9.4 10.4v28.3c0 6.3-3.1 9.4-9.4 9.4H384v27.2h22.6c6.3 0 9.4 3.4 9.4 10.4v28.3c0 6.3-3.1 9.4-9.4 9.4H384v8.5c0 10-5 15-15 15H111c-10 0-15-5-15-15v-290.1c0-10 5-15 15-15h257.9c10 0 15 5 15 15v8.5h22.6c6.3 0 9.4 3.1 9.4 9.4v28.3c.1 6.2-3 9.3-9.3 9.3z"/>
</svg>
